X:325
T:Andy De Jarlis' Jig 
R:jig
H:also played in D, #428
D:Altan: Island Angel
Z:id:hn-jig-325
M:6/8
K:E 
EGB EGB|EGB c2B|EGB EGB|=DFA B2A|
EGB EGB|EGB c2a|gfe Bcd|1 e3 e3:|2 e3 e2a||
|:gfg efg|aga c2e|~f3 fge|dcB c2B|
gbg efg|aga c2e|fgf Bcd|1 e3 e2a:|2 e3 e3||

